storage/app/icons/phosphoricons/regular/first-aid.svg

<svg xmlns="http://www.w3.org/2000/svg" fill="currentColor" viewBox="0 0 256 256"><path d="M216 88h-48V40a16 16 0 0 0-16-16h-48a16 16 0 0 0-16 16v48H40a16 16 0 0 0-16 16v48a16 16 0 0 0 16 16h48v48a16 16 0 0 0 16 16h48a16 16 0 0 0 16-16v-48h48a16 16 0 0 0 16-16v-48a16 16 0 0 0-16-16m0 64h-56a8 8 0 0 0-8 8v56h-48v-56a8 8 0 0 0-8-8H40v-48h56a8 8 0 0 0 8-8V40h48v56a8 8 0 0 0 8 8h56Z"/></svg>

<svg xmlns="http://www.w3.org/2000/svg" viewBox="0 0 256 256" fill="currentColor"><path d="M216,88H168V40a16,16,0,0,0-16-16H104A16,16,0,0,0,88,40V88H40a16,16,0,0,0-16,16v48a16,16,0,0,0,16,16H88v48a16,16,0,0,0,16,16h48a16,16,0,0,0,16-16V168h48a16,16,0,0,0,16-16V104A16,16,0,0,0,216,88Zm0,64H160a8,8,0,0,0-8,8v56H104V160a8,8,0,0,0-8-8H40V104H96a8,8,0,0,0,8-8V40h48V96a8,8,0,0,0,8,8h56Z"/></svg>
